X:347
T:Alice's Reel
R:reel
H:Played in Em or Bm
D:De Danann: Jacket of Batteries
D:Frankie Gavin: Frankie Goes to Town
D:Kathryn Tickell Band
Z:id:hn-reel-347
M:C|
K:Em
EGBG AGED|E2GE DEB,D|EGBG A2 (3Bcd|e2dB AGED|
EGBG AGED|E2GE DEB,D|DB,A,B, DEFA|1 BGAF GEED:|2 BGAF GEEF||
|:G2DB, DGBG|A2EC EcBA|G2DB, DGBG|1 AcBA GEEF:|2 AcBA GEFD||
K:Bm
Bdfd edBA|B2dB ABFA|Bdfd e2 (3fga|b2af edBA|
Bdfd edBA|B2dB ABFA|AFEF ABce|1 fdec dBBA:|2 fdec dBBc||
|:d2AF Adfd|e2BG Bgfe|d2AF Adfd|1 egfe dBBc:|2 egfe dBBA||
